teeny/outline/usb-cable.svg

<svg width="15" height="15" viewBox="0 0 15 15" fill="none" xmlns="http://www.w3.org/2000/svg">
<path d="M4.5 5.5H10.5M4.5 5.5C3.94772 5.5 3.5 5.94772 3.5 6.5V10.5C3.5 11.0523 3.94772 11.5 4.5 11.5H10.5C11.0523 11.5 11.5 11.0523 11.5 10.5V6.5C11.5 5.94772 11.0523 5.5 10.5 5.5M4.5 5.5V0.5H10.5V5.5M6.5 2V4M8.5 2V4M5.5 11.5V13.5H9.5V11.5M6.5 13.5V15M8.5 13.5V15" stroke="black"/>
</svg>

<svg viewBox="0 0 15 15" xmlns="http://www.w3.org/2000/svg"><path fill="none" stroke="#000" d="M4.5 5.5h6m-6 0c-.56 0-1 .44-1 1v4c0 .55.44 1 1 1h6c.55 0 1-.45 1-1v-4c0-.56-.45-1-1-1m-6 0v-5h6v5M6.5 2v2m2-2v2m-3 7.5v2h4v-2m-3 2V15m2-1.5V15"/></svg>
